!!!!SEGMENT: pl-wn--mus-iii-97-056-2_zelenski-wladyslaw--dwie-piesni-do-slow-kazimierza-tetmajera-wierzba.krn
!!!cenid: 18xx:3772
!!!COM: Żeleński, Władysław
!!!COM-rismID: pe41024455
!!!CDT: 1837/07/06-1921/01/23
!!!CNT: Polish
!!!OTL: Dwie pieśni do słów Kazimierza Tetmajera/Wierzba
!!!PDT:
!!!AGN:
!!!SMS-siglum: PL-Wn
!!!SMS-shelfmark: Mus.III.97.056/2
!!!SMS-shelfwork: W
!!!SMS-variant:
!!!SMS-altvar:
!!!NIFC-rismSourceID:
!!!NIFC-islandoraID:
!!!URL-pdf-islandora:
!!!URL-scan: https://polona.pl/item/dwie-piesni-do-slow-kazimierza-tetmajera-2-wierzba,Nzk5MzQ1MTQ/0 @EN{Scan on Polona} @PL{Skany w portalu Polona}
!!!ONB-nifc:
!!!AIN: 2 forte 1 vox
!!!key:
**kern	**dynam	**kern	**dynam	**kern	**text	**dynam
*part3	*part3	*part2	*part2	*part1	*part1	*part1
*staff3	*	*staff2	*	*staff1	*staff1	*
*Iforte	*	*Iforte	*	*Ivox	*	*
*I"Fortepian.	*	*I"Fortepian.	*	*I"Spiew.	*	*
*I'pf	*	*I'pf	*	*I'v	*	*
*clefF4	*	*clefF4	*	*clefG2	*	*
*k[b-e-]	*	*k[b-e-]	*	*k[b-e-]	*	*
*g:	*	*g:	*	*g:	*	*
*M4/4	*	*M4/4	*	*M4/4	*	*
*met(c)	*	*met(c)	*	*met(c)	*	*
=1	=1	=1	=1	=1	=1	=1
!	!	!	!	!LO:TX:a:t=Andante sostenuto.	!	!
8r	p	8r	p	1r	.	.
(8DD/L	.	(8D\L	.	.	.	.
8FF#X/	.	8F#X\	.	.	.	.
8AA/J	.	8A\J	.	.	.	.
8C/L	.	8c\L	.	.	.	.
8AA/	.	8A\	<	.	.	.
8C/	.	8c\	.	.	.	.
8E-/J	.	8e-\J	.	.	.	.
=2	=2	=2	=2	=2	=2	=2
8D\L)	.	8d/L)	.	1r	.	.
*	*	*clefG2	*	*	*	*
(8C\	.	(8c/	.	.	.	.
8E-\	.	8e-/	.	.	.	.
8F#X\J	.	8f#X/J	.	.	.	.
8B-\L	.	8b-/L	.	.	.	.
8A\	.	8a/	.	.	.	.
8C\	.	8c/	.	.	.	.
8E-\J	.	8e-/J	[	.	.	.
=3	=3	=3	=3	=3	=3	=3
[2D\)	.	[2d/)	.	1r	.	.
8D/L]	.	8d/L]	.	.	.	.
(8FF#X/	.	(8F#X/	>	.	.	.
8AA/	.	8A/	.	.	.	.
8C#X/J	.	8c#X/J	.	.	.	.
=4	=4	=4	=4	=4	=4	=4
4E-\	.	4e-/	.	2r	.	.
2D\)	.	2d/)	.	.	.	.
.	.	.	.	4r	.	.
!	!	!	!	!	!	!LO:DY:a
4D\	.	4d/	]	4d/	Nad	p
=5	=5	=5	=5	=5	=5	=5
*^	*	*^	*	*	*	*
!	!	!	!LO:TX:b:i:t=lugubre	!	!	!	!	!
2BB-/ 2E-	[2GG\	.	2B-/ 2e-	[2G\	pp	4.e-/	wo-	.
.	.	.	.	.	.	8g/	-dą	.
4BB-/ 4D	2GG\]	.	4B-/ 4d	2G\]	.	4b-\	sza-	.
((4AA/ 4C#X	.	.	((4A/ 4c#X	.	.	4a/	-rą,	.
!!linebreak:original
=6	=6	=6	=6	=6	=6	=6	=6	=6
*	*^	*	*	*^	*	*	*	*
!	!	!	!	!	!	!	!	!	!	!LO:DY:a
8GG/L)) 8BB- 8E-	8ryy	4ryy	.	8G/L)) 8B- 8e-	8ryy	4ryy	.	4.g/	wo-	<
8GG/	[4.GG\	.	.	8G/	[4.G\	.	<	.	.	.
[8BB-/	.	4BB-\	.	[8B-/	.	4B-\	.	.	.	.
8E-/J	.	.	.	8e-/J	.	.	.	8b-\	-dą	.
8GG/L] 8BB-] 8D	8ryy	4ryy	.	8G/L] 8B-] 8d	8ryy	4ryy	.	4dd\	smę-	.
(8GG/	4.GG\	.	.	(8G/	4.G\	.	.	.	.	.
8BB-/	.	4BB-\	.	8B-/	.	4B-\	.	8cc#X\	-tną,	.
8F/J	.	.	.	8f/J	.	.	.	8g/	Po-	[[
*	*	*	*	*	*v	*v	*	*	*	*
=7	=7	=7	=7	=7	=7	=7	=7	=7	=7
!	!	!	!	!LO:TX:b:i:t=poco cresc.	!	!	!LO:TX:a:t=poco cresc.	!	!
4E-/	2BB-/	(4.GG\	.	4e-/	2G\ 2B-	[	4.b-\	-sę-	<
4D/)	.	.	.	4d/)	.	<	.	.	.
.	.	8FF\	.	.	.	.	8a/	-pna	[
4EE-/ 4E-	2BB-\	2ryy	.	[2G/ [2B- [2g	2ryy	[	8g/	ci-	.
.	.	.	.	.	.	.	8g/	-cha	.
4DD/ 4D	.	.	.	.	.	.	8.b-\	wierz-	.
.	.	.	.	.	.	.	16a/	-ba	.
*v	*v	*v	*	*	*	*	*	*	*
=8	=8	=8	=8	=8	=8	=8	=8
!	!	!	!	!	!	!	!LO:DY:a
[4CC/ [4C	.	4G/_ 4B-_ 4g_	2.ryy	.	4a/	sto-	>
8CC/]) 8C]	.	8G/L] 8B-] 8g]	.	>	4e-/	-i	.
8r	.	(8b-/J	.	.	.	.	.
4r	.	8a/L	.	.	4r	.	]
.	.	8e-/	.	.	.	.	.
!	!	!	!	!	!	!	!LO:DY:a
4DD/ 4D	.	8d/	(4F#X\	.	4d/	I	p
.	.	8B-/J	.	]	.	.	.
*	*	*v	*v	*	*	*	*
=9	=9	=9	=9	=9	=9	=9
*^	*	*	*	*	*	*
*	*^	*	*	*	*	*	*
8GG/	4ryy	4ryy	.	8G/))	.	4.e-/	w wo-	.
8r	.	.	.	8r	.	.	.	.
*	*	*	*	*^	*	*	*	*
*	*	*	*	*	*^	*	*	*	*
(8E-/L	2.GG\	4BB-/	.	(8e-/L	2.G\	4B-/	pp	.	.	.
8D/J	.	.	.	8d/J	.	.	.	8b-\	-dę	.
4AA/ 4C#X	.	2ryy	.	4A/ 4c#X	.	2ryy	.	4a/	sza-	.
4BB-/) 4D	.	.	.	4B-/) 4d	.	.	.	4g/	-rą,	.
*	*v	*v	*	*	*	*	*	*	*	*
*	*	*	*	*v	*v	*	*	*	*
!!linebreak:original
=10	=10	=10	=10	=10	=10	=10	=10	=10
(4GG/ 4BB- 4E-	2ryy	.	(4G/ 4B- 4e-	2ryy	.	(8g/	wo-	.
.	.	.	.	.	.	4b-\)	.	.
4FF/) 4BB- 4D	.	.	4F/) 4B- 4d	.	.	.	.	.
!	!	!	!	!	!	!	!	!LO:DY:a
.	.	.	.	.	.	8dd\	-dę	<
4EE-/ 4E-	2BB-\	.	2c/	(8B-\	<	4cc\	mę-	.
.	.	.	.	4A\	.	.	.	.
4EEn/ 4AA	.	.	.	.	.	4g/	-tną	[[
.	.	.	.	8B-\)	.	.	.	.
=11	=11	=11	=11	=11	=11	=11	=11	=11
!	!	!	!	!	!	!LO:TX:a:t=espr. ma dolce	!	!
(2BB-/ 2D	1FF	.	(4d/	2F\ 2B-	[ <	4dd\	Pa-	.
.	.	.	4f/	.	.	8cc\	-trzy	.
.	.	.	.	.	.	8b-\	i	.
4.D-X/	.	.	4en/	2B-\	.	4a/	ro-	.
.	.	.	4g/)	.	.	4g/	-sę	.
8C/	.	.	.	.	.	.	.	.
=12	=12	=12	=12	=12	=12	=12	=12	=12
2E-X/	(2FF\	.	[2f/	4B-\	[ >	(8f/	pła-	.
.	.	.	.	.	.	4g/)	.	.
.	.	.	.	4A\	.	.	.	.
.	.	.	.	.	.	8cc\	-cze	.
8BB-/)) 8D	2ryy	.	8f/L]	8B-\	.	4b-\	w nią.	.
8r	.	.	(8f/	8ryy	] pp	.	.	.
!	!	!	!LO:TX:b:i:t=armoniso	!	!	!	!	!
4r	.	.	8b-/	4ryy	.	4r	.	.
.	.	.	8dd/J)	.	.	.	.	.
*v	*v	*	*	*	*	*	*	*
*	*	*v	*v	*	*	*	*
*clefG2	*	*	*	*	*	*
=13	=13	=13	=13	=13	=13	=13
4r	.	(8ff\	.	1r	.	.
.	.	4gg\	.	.	.	.
(4f\ 4a 4ee-	.	.	.	.	.	.
.	.	8ccc\	.	.	.	.
8b-\) 8dd	.	8ff\L) 8bb-	.	.	.	.
8r	.	(8dd\	.	.	.	.
4r	.	8b-\	.	.	.	.
.	.	8f\J	.	.	.	.
*clefF4	*	*	*	*	*	*
=14	=14	=14	=14	=14	=14	=14
*	*	*^	*	*	*	*
8r	.	8d/L)	8ryy	.	8r	.	.
*^	*	*	*	*	*	*	*
!	!	!	!	!	!	!	!	!LO:DY:a
(8BB-/L	[4.BB-\	.	(8B-/	[4.B-\	p	8f/	O	p
8D/	.	.	8d/	.	.	8g/	czem:	.
8A-X/J	.	.	8a-X/J	.	.	8a-X/	a	.
4.G/)	8BB-\L]	.	4.g/)	8B-\L]	.	4.g/	wierz-	.
.	(8BB-\	.	.	(8B-\	.	.	.	.
.	8D\	.	.	8d\	.	.	.	.
8F/)	8F\J	.	8f/)	8f\J	.	8f/	-ba	.
!!pagebreak:original
=15	=15	=15	=15	=15	=15	=15	=15	=15
(8GG/L	[2GG\	.	(8G/L	[2G\	.	[2b-\	sni,	.
8BB-/	.	.	8B-/	.	.	.	.	.
8D/	.	.	8d/	.	.	.	.	.
8F/J	.	.	8f/J	.	.	.	.	.
8E-/L)	8GG\]	.	8G/L]) 8e-	2ryy	.	8b-\]	.	.
(8GG/	8ryy	.	(8G/	.	.	8r	.	.
8BB-/	4ryy	.	8B-/	.	.	4r	.	.
8E-/J	.	.	8e-/J	.	.	.	.	.
=16	=16	=16	=16	=16	=16	=16	=16	=16
8G/L)	8ryy	.	8g/L)	8ryy	.	8r	.	.
!	!	!	!	!	!	!	!	!LO:DY:a
8D-X/	[4.D-\	.	8d-X/	[4.d-\	<	8g/	ta	<
8E-/	.	.	8e-/	.	.	8f/	wierz-	.
8G/J	.	.	8g/J	.	.	8d/	-ba	.
4.c/	8D-\L]	.	4.cc/	8d-\L]	.	4.cc\	śni	.
.	(8D-\	.	.	(8d-\	.	.	.	.
.	8E-\	.	.	8e-\	.	.	.	.
8G/	8G\J	.	8g/	8g\J	[	8g/	i	[[
*v	*v	*	*	*	*	*	*	*
*	*	*v	*v	*	*	*	*
=17	=17	=17	=17	=17	=17	=17
8B-\L)	.	8b-/L)	.	4b-\	ro-	.
(8E-\	.	(8e-/	.	.	.	.
8C\	.	8c/	.	4a-X/	-i	.
8E-\J	.	8e-/J	.	.	.	.
8A-X\L	.	8a-X/L	.	2r	.	.
8c\	.	8cc/	.	.	.	.
8A-\	.	8a-/	.	.	.	.
8E-\J	.	8e-/J	.	.	.	.
=18	=18	=18	=18	=18	=18	=18
8C/)	.	8c/)	.	8r	.	.
!	!	!	!	!LO:TX:a:t=espr.	!	!
8r	.	8r	.	4ee-\	Cze-	.
[4EE-^/ [4AA-X [4E-	.	[4E-^/ [4A-X [4e-	.	.	.	.
.	.	.	.	8dd\	-muż	.
8EE-/L] 8AA-] 8E-]	.	8E-/L] 8A-] 8e-]	.	4cc\	w głąb,	.
(8CC/	.	(8C/	<	.	.	.
8EE-/	.	8E-/	.	4r	.	.
8BB-/J	.	8B-/J	[[	.	.	.
!!linebreak:original
=19	=19	=19	=19	=19	=19	=19
8AA-X/)	.	8A-X/)	.	8r	.	.
8r	.	8r	.	4cc\	cze-	.
[4AA-X\ [4E- [4A-X	.	[4c^/ [4e- [4cc	.	.	.	.
.	.	.	.	8b-\	-muż	.
8AA-\] 8E-] 8A-]	.	8c/] 8e-] 8cc]	.	8a-X/	w głąb	.
!	!	!	!	!	!	!LO:DY:a
8r	.	8r	.	8a-/L	rzu-	<
((4CC/ 4C	.	(((4c/ 4e- 4a-X	p	8b-/J	.	.
.	.	.	.	8cc\	-ca	[[
=20	=20	=20	=20	=20	=20	=20
*	*	*^	*	*	*	*
*	*	*	*^	*	*	*	*
[2DD/)) [2D	.	8B-/L))) 8d 8g	8ryy	4ryy	<	(2.b-\	łzę	.
.	.	(8G/	4.G\	.	.	.	.	.
.	.	8B-/	.	4B-\	.	.	.	.
.	.	8e-/J	.	.	[	.	.	.
8DD/] 8D]	.	4d/	8d\L	2ryy	>	.	.	.
8r	.	.	8c#X\	.	.	.	.	.
!	!	!	!	!	!	!	!	!LO:DY:a
((4DD/ 4D	.	4f#X/	8cn\	.	.	8a/)	.	>
.	.	.	8e-\J	.	]	8e-/	za	]
*	*	*v	*v	*v	*	*	*	*
=21	=21	=21	=21	=21	=21	=21
*^	*	*	*	*	*	*
8DD-X/L)) 8D-X	8ryy	.	8B-/) 8g	.	[2g/	łzą?	.
*	*	*	*^	*	*	*	*
!LO:TX:b:i:t=espr.	!	!	!	!	!	!	!	!
(8D-/	[4.D-\	.	(8d-X/L	[4.d-\	<	.	.	.
8E-/	.	.	8e-/	.	.	.	.	.
8G/J	.	.	8g/J	.	[	.	.	.
4.c/)	8D-\L]	.	4.cc/)	8d-\L]	.	8g/]	.	.
.	(8D-\	.	.	(8d-\	.	8r	.	.
.	8E-\	.	.	8e-\	.	4r	.	.
(8G/	8G\J	.	8g/	8g\J	.	.	.	.
*v	*v	*	*	*	*	*	*	*
*	*	*v	*v	*	*	*	*
=22	=22	=22	=22	=22	=22	=22
8A-X\))	.	8a-X/)	.	8r	.	.
!	!	!	!	!LO:TX:a:t=espr.	!	!
8r	.	8r	.	4cc\	Cze-	.
[4C^\ [4E- [4A-	.	[4c^/ [4e- [4a-	.	.	.	.
.	.	.	.	8b-\	-muż	.
8C/L] 8E-] 8A-]	.	8c\L] 8e-] 8a-]	.	4a-X/	w głąb	.
*	*	*clefF4	*	*	*	*
(8C/	.	(8c\	.	.	.	.
8AA-X/	.	8A-X\	.	4r	.	.
8EE-/J	.	8E-\J	.	.	.	.
!!linebreak:original
=23	=23	=23	=23	=23	=23	=23
8CC/)	.	8C/)	.	8r	.	.
!	!	!	!	!	!	!LO:DY:a
8r	.	8r	.	4ee-\	cze-	<
[4EE-^/ [4AA-X [4E-	.	[4E-^\ [4A-X [4e-	.	.	.	.
.	.	.	.	8dd\	-muż	.
8EE-/] 8AA-] 8E-]	.	8E-\] 8A-] 8e-]	.	8cc\	w głab	.
8r	.	8r	.	8e-/L	rzu-	.
*	*	*clefG2	*	*	*	*
((4CC/ 4C	.	(((4c/ 4e- 4a-X	p	8b-/J	.	.
.	.	.	.	8a-X/	-ca	[[
=24	=24	=24	=24	=24	=24	=24
*	*	*^	*	*	*	*
[2DD/)) [2D	.	8B-/L))) 8d 8g	2ryy	.	(2g/	łzę	.
.	.	(8G/	.	<	.	.	.
.	.	8B-/	.	.	.	.	.
.	.	8e-/J	.	.	.	.	.
8DD/] 8D]	.	4d/	8d\L	.	4.b-\)	.	.
8r	.	.	8c#X\	[	.	.	.
(4DD/ [4D	.	4f#X/	8cn\	>	.	.	.
!	!	!	!	!	!	!	!LO:DY:a
.	.	.	8e-\J	.	8f#X/	za	>]
*	*	*v	*v	*	*	*	*
=25	=25	=25	=25	=25	=25	=25
8GG/L) 8D]	.	8B-/L) 8g	] p	[2g/	łzą?	.
(8GG/	.	(8G/	.	.	.	.
8BB-/	.	8B-/	.	.	.	.
8E-/J	.	8e-/J	.	.	.	.
8D\L)	.	8d/L)	.	8g/]	.	.
(8BB-\	.	(8B-/	<	8r	.	.
8D\	.	8d/	.	4r	.	.
8G\J	.	8g/J	.	.	.	.
=26	=26	=26	=26	=26	=26	=26
8F#X\L)	.	8f#X/L)	.	1r	.	.
(8C\	.	(8c/	.	.	.	.
8E-\	.	8e-/	.	.	.	.
8F#\J	.	8f#/J	.	.	.	.
8B-\L)	.	8b-/L)	.	.	.	.
(8C\	.	(8c/	.	.	.	.
8E-\	.	8e-/	.	.	.	.
8F#\J	.	8f#/J	[[	.	.	.
=27	=27	=27	=27	=27	=27	=27
8A\)	.	8a/)	.	1r	.	.
(4G\	.	(4g/	>	.	.	.
[8E-\	.	[8e-/	.	.	.	.
8E-/L])	.	8e-/L])	.	.	.	.
(8D/	.	(8d/	.	.	.	.
8C#X/	.	8c#X/	.	.	.	.
8GG/J	.	8G/J	]]	.	.	.
!!linebreak:original
=28	=28	=28	=28	=28	=28	=28
2.BB-/)	.	2.B-/)	.	1r	.	.
4BB-/	.	4B-/	pp	.	.	.
=29||	=29||	=29||	=29||	=29||	=29||	=29||
*k[b-e-a-]	*	*k[b-e-a-]	*	*k[b-e-a-]	*	*
*M3/4	*	*M3/4	*	*M3/4	*	*
*^	*	*^	*	*	*	*
!	!	!	!	!	!	!LO:TX:a:t=Poco piu mosso.	!	!
8EE-/	2.EE-\	.	4B-/	[2.G\	.	2.r	.	.
4BB-/	.	.	.	.	.	.	.	.
.	.	.	(4e-/	.	.	.	.	.
4BB-/	.	.	.	.	.	.	.	.
.	.	.	4f/	.	.	.	.	.
8BB-/	.	.	.	.	.	.	.	.
=30	=30	=30	=30	=30	=30	=30	=30	=30
8EE-/	2.EE-\	.	[2.g/)	4G\]	.	4r	.	.
4BB-/	.	.	.	.	.	.	.	.
.	.	.	.	(4c\	.	8r	.	.
!	!	!	!	!	!	!	!	!LO:DY:a
4BB-/	.	.	.	.	.	8g/	O	p
.	.	.	.	4G\	.	8g/	zmro-	.
8BB-/	.	.	.	.	.	8g/	-ku	.
=31	=31	=31	=31	=31	=31	=31	=31	=31
8EE-/	2.EE-\	.	4g/]	[2.B-\)	.	4.b-\	dzwon	.
4BB-/	.	.	.	.	.	.	.	.
.	.	.	(4e-/	.	.	.	.	.
4BB-/	.	.	.	.	.	8b-\	koś-	.
.	.	.	4f/	.	.	8b-\	-ciel-	.
8BB-/	.	.	.	.	.	8a-/	-ny	.
=32	=32	=32	=32	=32	=32	=32	=32	=32
8EE-/	2.EE-\	.	[2.g/)	4B-\]	.	[2g/	bi-	.
4BB-/	.	.	.	.	.	.	.	.
.	.	.	.	(4c\	.	.	.	.
4BB-/	.	.	.	.	.	.	.	.
.	.	.	.	4G\	.	8g/]	.	.
8BB-/	.	.	.	.	.	8b-\	-je,	.
!!pagebreak:original
=33	=33	=33	=33	=33	=33	=33	=33	=33
8EE-/	2.EE-\	.	4g/]	[2.A-\)	.	4cc\	Dzwon	.
4BB-/	.	.	.	.	.	.	.	.
.	.	.	(4c/	.	.	8r	.	.
4BB-/	.	.	.	.	.	8a-/	z da-	.
.	.	.	4g/	.	.	8g/	-le-	.
8BB-/	.	.	.	.	.	8e-/	-kiej	.
=34	=34	=34	=34	=34	=34	=34	=34	=34
8EE-/	2.EE-\	.	[2.f/)	4A-\]	.	[2f/	wsi	.
4BB-/	.	.	.	.	.	.	.	.
.	.	.	.	(4c\	.	.	.	.
4BB-/	.	.	.	.	.	.	.	.
.	.	.	.	4B-\	.	8f/]	.	.
8BB-/	.	.	.	.	.	8f/	głos	.
=35	=35	=35	=35	=35	=35	=35	=35	=35
!	!	!	!	!	!	!	!	!LO:DY:a
8EE-/	2.EE-\	.	4f/]	2.A-\)	<	4.f/	dzwo-	<
4BB-/	.	.	.	.	.	.	.	.
.	.	.	(4c/	.	.	.	.	.
4BB-/	.	.	.	.	.	8g/	-nu	.
.	.	.	4e-/	.	.	8a-/	dźwię-	.
8BB-/	.	.	.	.	.	8cc\	-czy	[
=36	=36	=36	=36	=36	=36	=36	=36	=36
!	!	!	!	!	!	!	!	!LO:DY:a
8EE-/	2.EE-\	.	2.d/)	4A-\	[ >	[4b-\	głos.	>
4BB-/	.	.	.	.	.	.	.	.
.	.	.	.	(4F\	.	8b-\]	.	.
4BB-/	.	.	.	.	.	8r	.	]
.	.	.	.	4A-\	.	4r	.	.
8BB-/	.	.	.	.	.	.	.	.
=37	=37	=37	=37	=37	=37	=37	=37	=37
!	!	!	!	!	!	!LO:TX:a:t=dolce	!	!
8EE-/	2.EE-\	.	4B-/	(2.B-\)	] pp	2ee-\	A-	.
4BB-/	.	.	.	.	.	.	.	.
.	.	.	(4e-/	.	.	.	.	.
4BB-/	.	.	.	.	.	.	.	.
.	.	.	4f/	.	.	8dd\	-nioł	.
8BB-/	.	.	.	.	.	8cc\	po-	.
!!linebreak:original
=38	=38	=38	=38	=38	=38	=38	=38	=38
8EE-/	2.EE-\	.	[2.g/)	4G\)	.	8b-\	-zdra-	.
4BB-/	.	.	.	.	.	8b-\	-wia	.
.	.	.	.	(4c\	.	4cc\	to	.
4BB-/	.	.	.	.	.	.	.	.
.	.	.	.	4G\	.	4g/	Ma-	.
8BB-/	.	.	.	.	.	.	.	.
=39	=39	=39	=39	=39	=39	=39	=39	=39
8EE-/	2.EE-\	.	4g/]	[2.B-\)	.	4b-\	-ry-	.
4BB-/	.	.	.	.	.	.	.	.
.	.	.	(4e-/	.	.	[4b-\	-ję,	.
4BB-/	.	.	.	.	.	.	.	.
.	.	.	4f/	.	.	8b-\]	.	.
!	!	!	!	!	!	!	!	!LO:DY:a
8BB-/	.	.	.	.	.	8g/	Z śród	<
=40	=40	=40	=40	=40	=40	=40	=40	=40
8EE-/	2EE-\	.	[2g/)	4B-\]	<	4.b-\	ła-	.
4BB-/	.	.	.	.	.	.	.	.
.	.	.	.	4d-X\	.	.	.	.
8BB-/	.	.	.	.	.	8g/	-nów,	.
8AAA-/L	4AAA-\	.	8g/L]	4c\	.	8e-/	z śród	.
8AA-/J	.	.	8f/J	.	.	8f/	o-	[[
=41	=41	=41	=41	=41	=41	=41	=41	=41
.	.	.	.	.	.	(8qqg/	.	.
8BBB-/	2.BBB-\	.	2e-/	(4G\	[	[2b-\)	-mglo-	.
4BB-/	.	.	.	.	.	.	.	.
.	.	.	.	4F\	.	.	.	.
4BB-/	.	.	.	.	.	.	.	.
.	.	.	(4d/	4A-\	>	8b-\]	.	.
8BB-/	.	.	.	.	.	8g/	-nych	.
=42	=42	=42	=42	=42	=42	=42	=42	=42
8EE-/	2.EE-\	.	4B-/)	[2.G\)	.	[2e-/	wsi.	.
4BB-/	.	.	.	.	.	.	.	.
.	.	.	(4e-/	.	.	.	.	.
4BB-/	.	.	.	.	.	.	.	.
.	.	.	4f/	.	.	8e-/]	.	.
8BB-/	.	.	.	.	.	8r	.	.
!!linebreak:original
=43	=43	=43	=43	=43	=43	=43	=43	=43
8EE-/	2.EE-\	.	4g/)	2.G\_	]	2.r	.	.
4BB-/	.	.	.	.	.	.	.	.
.	.	.	(4e-/	.	.	.	.	.
4BB-/	.	.	.	.	.	.	.	.
.	.	.	4c/	.	.	.	.	.
8BB-/	.	.	.	.	.	.	.	.
=44	=44	=44	=44	=44	=44	=44	=44	=44
8EE-/	2.EE-\	.	[2.B-/)	4G\]	.	2.r	.	.
4BB-/	.	.	.	.	.	.	.	.
.	.	.	.	4E-\	.	.	.	.
4BB-/	.	.	.	.	.	.	.	.
.	.	.	.	4F\	.	.	.	.
8BB-/	.	.	.	.	.	.	.	.
=45	=45	=45	=45	=45	=45	=45	=45	=45
8EE-/	2.EE-\	.	4B-/]	[2.G-X\	pp	4r	.	.
4BB-/	.	.	.	.	.	.	.	.
.	.	.	(4g-X/	.	.	8r	.	.
!	!	!	!	!	!	!LO:TX:a:t=dolce	!	!
4BB-/	.	.	.	.	.	8b-\	Wę-	.
.	.	.	4f/	.	.	8b-\	-dro-	.
8BB-/	.	.	.	.	.	8b-\	-wiec	.
=46	=46	=46	=46	=46	=46	=46	=46	=46
8EE-/	2.EE-\	.	2e-/)	4G-\]	.	4.b-\	ke-	.
4BB-/	.	.	.	.	.	.	.	.
.	.	.	.	(4E-\	.	.	.	.
!	!	!	!	!	!	!	!	!LO:DY:a
4BB-/	.	.	.	.	.	8b-\	-dyś	<
.	.	.	8d-X/L	4F\	.	8b-\	w po-	.
8BB-/	.	.	8c-X/J	.	.	8a-X/	-lu	[[
=47	=47	=47	=47	=47	=47	=47	=47	=47
!	!	!	!	!	!	!	!	!LO:DY:a
8EE-/	2EE-\	.	4B-/	2.G-X\)	.	4a-/	klę-	>
4BB-/	.	.	.	.	.	.	.	.
.	.	.	(4g-X/	.	.	4g-X/	-czy	.
8BB-/	.	.	.	.	.	.	.	.
(8DD-X/L	4DD-\	.	4f-X/	.	.	8r	.	]
8D-X/J	.	.	.	.	.	8g-/	A	.
!!linebreak:original
=48	=48	=48	=48	=48	=48	=48	=48	=48
8CC-X/	2.CC-\)	.	2.e-/)	4G\	<	[2g-X/	wierz-	.
4C-X/	.	.	.	.	.	.	.	.
.	.	.	.	(4c-X\	.	.	.	.
4C-/	.	.	.	.	.	.	.	.
.	.	.	.	4B-\	.	8g-/]	.	.
8C-/	.	.	.	.	.	8g-/	-ba	.
=49	=49	=49	=49	=49	=49	=49	=49	=49
!	!	!	!	!	!	!	!	!LO:DY:a
8FF-X/	2.FF-\	.	(4a-/	(2.A-\)	[ <	4.a-/	w wo-	<
4C-X/	.	.	.	.	.	.	.	.
.	.	.	4c-X/	.	.	.	.	.
4C-/	.	.	.	.	.	8b-\	-dę	.
.	.	.	4f-X/	.	.	8cc-X\	rzu-	.
8C-/	.	.	.	.	.	8a-/	-ca	[
=50	=50	=50	=50	=50	=50	=50	=50	=50
!	!	!	!	!	!	!	!	!LO:DY:a
8CC-X/	2.CC-\	.	(2.e-/)	4G-X\)	[	[2g-X/	łzy.	>
4C-X/	.	.	.	.	.	.	.	.
.	.	.	.	(4c-X\	.	.	.	.
4C-/	.	.	.	.	.	.	.	.
.	.	.	.	4B-\	.	8g-/]	.	.
8C-/	.	.	.	.	.	8r	.	]
=51	=51	=51	=51	=51	=51	=51	=51	=51
8FF-X/	2.FF-\	.	4a-/)	4.A-\)	.	4r	.	.
4C-X/	.	.	.	.	.	.	.	.
.	.	.	(4f-X/	.	.	4r	.	.
4C-/	.	.	.	8B-\	.	.	.	.
.	.	.	4a-/	8c-X\L	.	8r	.	.
8C-/	.	.	.	8A-\J	.	8a-/	A	.
=52	=52	=52	=52	=52	=52	=52	=52	=52
!	!	!	!	!	!	!	!	!LO:DY:a
8CC-X/	2.CC-\	.	4g-X/)	2.e-\	.	[2ee-\	wierz-	<
4C-X/	.	.	.	.	.	.	.	.
.	.	.	(4cc-X/	.	.	.	.	.
4C-/	.	.	.	.	.	.	.	.
.	.	.	4b-/	.	.	8ee-\]	.	.
8C-/	.	.	.	.	.	8dd-X\	-ba	[
!!pagebreak:original
=53	=53	=53	=53	=53	=53	=53	=53	=53
8FF-X/	2.FF-\	.	(2.a-/)	4f-X\	.	4.cc-X\	w wo-	.
4C-X/	.	.	.	.	.	.	.	.
.	.	.	.	4A-\	.	.	.	.
4C-/	.	.	.	.	.	8b-\	-dę	.
.	.	.	.	4c-X\	.	8a-/	rzu-	.
8C-/	.	.	.	.	.	8cc-\	-ca	.
=54	=54	=54	=54	=54	=54	=54	=54	=54
!	!	!	!	!	!	!	!	!LO:DY:a
8CC-X/	[2.CC-\	.	[2.g/)	[2.e-\	.	[2g-X/	łzy.	>
4C-X/	.	.	.	.	.	.	.	.
4C-/	.	.	.	.	.	.	.	.
.	.	.	.	.	.	8g-/]	.	.
[8C-/	.	.	.	.	.	8r	.	]
=55	=55	=55	=55	=55	=55	=55	=55	=55
8C-/]	(2.CC-\]	.	4g/]	2.e-\]	.	2.r	.	.
4C-X/	.	.	.	.	.	.	.	.
.	.	.	((4c-X/ 4cc-X	.	.	.	.	.
4C-/	.	.	.	.	.	.	.	.
.	.	.	4B-/ 4b-	.	.	.	.	.
8C-/	.	.	.	.	.	.	.	.
*v	*v	*	*	*	*	*	*	*
*	*	*v	*v	*	*	*	*
=56||	=56||	=56||	=56||	=56||	=56||	=56||
*k[b-e-]	*	*k[b-e-]	*	*k[b-e-]	*	*
4FF/) 4Cn	.	4An/)) 4e- 4an	.	2.r	.	.
8r	.	8r	.	.	.	.
(8AAn/L	.	(8A/L	pp	.	.	.
8C/	.	8c/	.	.	.	.
8E-/J	.	8e-/J	.	.	.	.
=57	=57	=57	=57	=57	=57	=57
4G-X\)	.	4g-X/)	.	2.r	.	.
8r	.	8r	.	.	.	.
(8C\L	.	(8c/L	.	.	.	.
8E-\	.	8e-/	<	.	.	.
8G-\J	.	8g-/J	.	.	.	.
=58	=58	=58	=58	=58	=58	=58
8B-\	.	8b-\	.	2.r	.	.
4A\)	.	4a/)	.	.	.	.
8E-\L	.	(8e-/L	.	.	.	.
8C\	.	8c/	.	.	.	.
8E-\J	.	8e-/J	[	.	.	.
=59	=59	=59	=59	=59	=59	=59
4G-X\	.	4g-X/)	.	2.r	.	.
8r	.	8r	.	.	.	.
(8C/L	.	(8c/L	.	.	.	.
8AA/	.	8A/	.	.	.	.
8C/J	.	8c/J	.	.	.	.
!!linebreak:original
=60||	=60||	=60||	=60||	=60||	=60||	=60||
*M4/4	*	*M4/4	*	*M4/4	*	*
*met(c)	*	*met(c)	*	*met(c)	*	*
!	!	!	!	!LO:TX:a:t=Tempo I.	!	!
4E-\	.	4e-/	>	2r	.	.
2D\)	.	2d/)	.	.	.	.
.	.	.	.	4r	.	.
4D\	.	4d/	]	4d/	Nad	.
=61	=61	=61	=61	=61	=61	=61
([2GG/ [2BB- 2E-	.	(([2G/ 2B- 2e-	.	4.e-/	wo-	.
.	.	.	.	8g/	-dą	.
4BB-/]) 4D	.	4B-/)) 4d	.	4b-\	sza-	.
((4AA/ 4C#X	.	(((4A/ 4c#X	.	4a/	-rą,	.
=62	=62	=62	=62	=62	=62	=62
*^	*	*^	*	*	*	*
*	*^	*	*	*^	*	*	*	*
8GG/L])) 8BB- 8E-	8ryy	4ryy	.	8G/L]))) 8B- 8e-	8ryy	4ryy	.	4.g/	ao-	.
8GG/	[4.GG\	.	.	8G/	[4.G\	.	<	.	.	.
[8BB-/	.	4BB-\	.	[8B-/	.	4B-\	.	.	.	.
!	!	!	!	!	!	!	!	!	!	!LO:DY:a
8E-/J	.	.	.	8e-/J	.	.	.	8b-\	-dą	<
8GG/L] 8BB-] 8D	8ryy	4ryy	.	8G/L] 8B-] 8d	8ryy	4ryy	.	4dd\	smę-	.
(8GG/	[4.GG\	.	.	(8G/	[4.G\	.	.	.	.	.
[8BB-/	.	4BB-\	.	[8B-/	.	4B-\	.	8cc#X\	-tną	.
8F/J	.	.	.	8f/J	.	.	.	8g/	Po-	[[
*	*	*	*	*	*v	*v	*	*	*	*
=63	=63	=63	=63	=63	=63	=63	=63	=63	=63
!	!	!	!	!LO:TX:b:i:t=poco cresc.	!	!	!	!	!
4E-/	2BB-/]	(4.GG\]	.	4e-/	2G\] 2B-]	[	4.b-\	-sę-	.
4D/)	.	.	.	4d/)	.	<	.	.	.
!	!	!	!	!	!	!	!LO:TX:a:t=poco cresc.	!	!
.	.	8FF\	.	.	.	.	8a/	-pna	<
4EE-/ 4E-	2BB-\	2ryy	.	[2G/ [2B- [2g	2ryy	[	8g/	ci-	[
.	.	.	.	.	.	.	8g/	-cha	.
4DD/ 4D	.	.	.	.	.	.	8.b-\	wierz-	.
.	.	.	.	.	.	.	16a/	-ba	.
*v	*v	*v	*	*	*	*	*	*	*
=64	=64	=64	=64	=64	=64	=64	=64
[4CC/ [4C	.	4G/_ 4B-_ 4g_	2.ryy	.	4a/	sto-	.
8CC/]) 8C]	.	8G/L] 8B-] 8g]	.	>	4e-/	-i	.
8r	.	(8b-/J	.	.	.	.	.
4r	.	8a/L	.	.	2r	.	.
.	.	8e-/	.	.	.	.	.
4DD/ 4D	.	8d/	4F#X\	.	.	.	.
.	.	8B-/J	.	]	.	.	.
*	*	*v	*v	*	*	*	*
!!linebreak:original
=65	=65	=65	=65	=65	=65	=65
2.EE-/ 2.E-	.	8G/L)	.	8r	.	.
.	.	(8G/	.	8g/	o	.
.	.	8d-X/	.	8a-X/	czem	.
.	.	8g/J	.	8b-\	ta	.
.	.	8B-/L	.	(8g/	wierz-	.
.	.	8G/	.	4f/)	.	.
((4DD-X/ 4D-X	.	8B-/	.	.	.	.
.	.	8e-/J)	.	8e-/	-ba	.
=66	=66	=66	=66	=66	=66	=66
2.CC/)) 2.C	.	8r	.	[2a-X/	śni	.
.	.	(8A-X/L	.	.	.	.
.	.	8e-/	.	.	.	.
.	.	8a-X/J	.	.	.	.
.	.	8e-/L	.	8a-/]	.	.
.	.	8A-/	.	8r	.	.
((4CC/ 4C	.	8e-/	.	4r	.	.
.	.	8a-/J)	.	.	.	.
=67	=67	=67	=67	=67	=67	=67
2.BBB-/)) 2.BB-	.	8r	.	8r	.	.
!	!	!	!	!	!	!LO:DY:a
.	.	(8d-X/L	<	8b-\	ta	<
.	.	8e-/	.	8cc\	wierz-	.
.	.	8g/J	.	8dd-X\	-ba	.
.	.	8dd-X/L	.	4.cc\	śni	.
.	.	8e-/	.	.	.	.
4EE-/ 4E-	.	8d-/	.	.	.	.
.	.	8g/J)	[	8g/	i	[
=68	=68	=68	=68	=68	=68	=68
[2AAA-X/ [2AA-X	.	8r	.	4b-\	ro-	.
.	.	(8c/L	<	.	.	.
.	.	8e-/	[	4a-X/	-i?	.
.	.	8a-X/J	.	.	.	.
4AAA-/] 4AA-]	.	8cc/L	.	2r	.	.
.	.	8a-/	.	.	.	.
4r	.	8e-/	.	.	.	.
.	.	8c/J	.	.	.	.
=69	=69	=69	=69	=69	=69	=69
4r	.	8A-X/)	.	8r	.	.
!	!	!	!	!LO:TX:a:t=espr.	!	!
.	.	8r	.	4ee-^\	Cze-	.
[4CC^/ [4AA-X [4C	.	[4E-^/ [4A- [4e-	.	.	.	.
.	.	.	.	8dd\	-muż	.
8CC/L] 8AA-] 8C]	.	8E-/L] 8A-] 8e-]	.	4cc\	w głąb,	.
(8CC/	.	(8C/	.	.	.	.
8EE-/	.	8E-/	.	4r	.	.
8BB-/J	.	8B-/J	.	.	.	.
!!linebreak:original
=70	=70	=70	=70	=70	=70	=70
8AA-X/)	.	8A-X/)	.	8r	.	.
8r	.	8r	.	4cc\	cze-	.
[4AA-X^\ [4E- [4A-X	.	[4c^/ [4e- [4cc	.	.	.	.
.	.	.	.	8b-\	-muż	.
8AA-\] 8E-] 8A-]	.	8c/] 8e-] 8cc]	.	8a-X/	w głąb	.
!	!	!	!	!	!	!LO:DY:a
8r	.	8r	.	8a-/L	rzu-	<
((4CC/ 4C	.	(((4c/ 4e- 4a-X	.	8b-/J	.	.
.	.	.	.	8cc\	-ca	[[
=71	=71	=71	=71	=71	=71	=71
*	*	*^	*	*	*	*
[2DD/)) [2D	.	8B-/L))) 8d 8g	2ryy	.	(2.b-\	łzę	.
.	.	((8G/	.	.	.	.	.
.	.	8B-/	.	.	.	.	.
.	.	8e-/J	.	.	.	.	.
8DD/] 8D]	.	4d/	8d\L	.	.	.	.
8r	.	.	8c#X\	.	.	.	.
((4DD/ 4D	.	4f#X/	8cn\	.	8a/)	.	.
.	.	.	8e-\J	.	8e-/	za	.
=72	=72	=72	=72	=72	=72	=72	=72
*^	*	*	*	*	*	*	*
8DD-X/L)) 8D-X	8ryy	.	8B-/L)) 8g	8ryy	.	[2g/	łzą?	.
(8D-/	[4.D-\	.	(8d-X/	[4.d-\	.	.	.	.
8E-/	.	.	8e-/	.	.	.	.	.
8G/J	.	.	8g/J	.	.	.	.	.
4.c/)	8D-\L]	.	4.cc/)	8d-\L]	.	8g/]	.	.
.	8D-\	.	.	8d-\	.	8r	.	.
.	8E-\	.	.	8e-\	.	4r	.	.
8G/	8G\J	.	8g/	8g\J	.	.	.	.
*v	*v	*	*	*	*	*	*	*
*	*	*v	*v	*	*	*	*
=73	=73	=73	=73	=73	=73	=73
8A-X\	.	8a-X/	.	8r	.	.
!	!	!	!	!LO:TX:a:t=espr.	!	!
8r	.	8r	.	4cc\	Cze-	.
[4C\ [4E- [4A-	.	[4c/ [4e- [4a-	.	.	.	.
.	.	.	.	8b-\	-muż	.
8C\L] 8E-] 8A-]	.	8c\L] 8e-] 8a-]	.	4a-X/	w głąb	.
*	*	*clefF4	*	*	*	*
(8C\	.	(8c\	.	.	.	.
8AA-X\	.	8A-X\	.	4r	.	.
8EE-\J	.	8E-\J	.	.	.	.
!!pagebreak:original
=74	=74	=74	=74	=74	=74	=74
8CC/)	.	8C/)	.	8r	.	.
!	!	!	!	!	!	!LO:DY:a
8r	.	8r	.	4ee-\	cze-	<
[4CC^/ [4AA-X [4C	.	[4E-^\ [4A-X [4e-	.	.	.	.
.	.	.	.	8dd\	-muż	.
8CC/] 8AA-] 8C]	.	8E-\] 8A-] 8e-]	.	8cc\	w głab	.
8r	.	8r	.	8e-/L	rzu-	.
*	*	*clefG2	*	*	*	*
((4CC/ 4C	.	(((4c/ 4e- 4a-X	.	8b-/J	.	.
.	.	.	.	8a-X/	-ca	[[
=75	=75	=75	=75	=75	=75	=75
[2DD/)) [2D	.	8B-/L))) 8d 8g	.	[2g/	łzę,	.
.	.	(8G/	.	.	.	.
.	.	8B-/	.	.	.	.
.	.	8c#X/J	.	.	.	.
8DD/] 8D]	.	8e-/L	.	8g/]	.	.
8r	.	8d/	.	8r	.	.
4r	.	8B-/	.	4r	.	.
.	.	8G/J	.	.	.	.
=76	=76	=76	=76	=76	=76	=76
*	*	*^	*	*	*	*
4r	.	8A/)	4ryy	.	4r	.	.
.	.	8r	.	.	.	.	.
!	!	!	!	!	!	!	!LO:DY:a
[2DD/ 2D	.	2d;/ 2g	(4A;\	<	[2dd;\	łzę	<
.	.	.	4B-\)	.	.	.	.
(4DD/] [4D	.	(4f#X/	(4c\ [4d	[ >	8dd\]	.	.
.	.	.	.	.	8f#X/	za	[
=77	=77	=77	=77	=77	=77	=77	=77
!	!	!	!	!	!	!	!LO:DY:a
8FF/) 8D]	.	8B-/)) 8d] 8g	4ryy	]	[2g/	łzą?	>
8r	.	8r	.	.	.	.	.
*^	*	*	*	*	*	*	*
(4E-/	2GG\ 2BB-	.	(4e-/	2G\ 2B-	sf >	.	.	.
4D/)	.	.	4d/)	.	.	8g/]	.	.
.	.	.	.	.	.	8r	.	]
4C#X/	([4GG\ 4AA	.	(4c#X/	([4G\ 4A	]	4r	.	.
=78	=78	=78	=78	=78	=78	=78	=78	=78
*	*^	*	*	*	*	*	*	*
(8E-/	4GG\]) 4BB-	2ryy	.	(8e-/)	4G\]) 4B-	.	1r	.	.
4D/)	.	.	.	4d/)	.	.	.	.	.
.	4FF\ 4AA	.	.	.	((4F\ 4A	<	.	.	.
8D/	.	.	.	8d/	.	.	.	.	.
(4E-/	4EE-\	2BB-/	.	2G/)) 2B- 2g	2ryy	.	.	.	.
4D/	4DD\	.	.	.	.	.	.	.	.
*v	*v	*v	*	*	*	*	*	*	*
*	*	*v	*v	*	*	*	*
!!linebreak:original
=79	=79	=79	=79	=79	=79	=79
[4CC/) [4C	.	[4G/ [4e- [4g	[	1r	.	.
8CC/] 8C]	.	8G/L] 8e-] 8g]	>	.	.	.
8r	.	(8e-/J	.	.	.	.
4r	.	8c/L	.	.	.	.
*	*	*clefF4	*	*	*	*
.	.	8G/	.	.	.	.
4CC/ 4C	.	8E-/	.	.	.	.
.	.	8G/J	]	.	.	.
=80	=80	=80	=80	=80	=80	=80
1GGG 1GG	.	1D) 1G 1Bn	pp	1r	.	.
==	==	==	==	==	==	==
*-	*-	*-	*-	*-	*-	*-
!!!system-decoration: s1[(s2,s3)]
!!!ENC: Anastazja Marusiak
!!!END: 2022-03-25
